src/assets/svg/msg.svg

<svg width="32" height="32" viewBox="0 0 32 32" fill="none" xmlns="http://www.w3.org/2000/svg">
<path d="M27.0931 11.0421C28.7664 12.7022 29.7145 14.8545 29.7145 17.1428C29.7145 18.5937 29.3337 19.9952 28.6172 21.2556C28.7327 21.9452 29.0658 22.9919 29.6181 24.36L29.9135 25.0729L29.9786 25.2649L30.0072 25.3771C30.1568 26.1178 29.7663 26.8682 29.0633 27.1663C28.8396 27.2611 28.5973 27.3038 28.3547 27.291C26.1741 27.1764 24.4345 26.6447 23.1662 25.6641C21.9863 26.0728 20.7236 26.2857 19.4288 26.2857C18.1093 26.2857 16.8224 26.0647 15.6207 25.6393C15.0257 25.4287 14.7141 24.7757 14.9247 24.1806C15.1353 23.5856 15.7884 23.274 16.3834 23.4846C17.3401 23.8233 18.3691 24 19.4288 24C20.6704 24 21.8691 23.7573 22.9564 23.2976C23.3868 23.1156 23.8846 23.214 24.2134 23.546C24.8416 24.1802 25.7809 24.6219 27.0496 24.85L27.3736 24.9025C26.7179 23.2391 26.3583 21.983 26.296 21.0818C26.2792 20.839 26.3404 20.5971 26.4706 20.3915C27.0977 19.4013 27.4288 18.2934 27.4288 17.1428C27.4288 15.4813 26.7352 13.9068 25.4833 12.6647C25.0352 12.2202 25.0323 11.4966 25.4769 11.0485C25.9214 10.6004 26.645 10.5976 27.0931 11.0421ZM12.5714 3.42856C18.2207 3.42856 22.8572 7.48549 22.8572 12.5714C22.8572 17.6573 18.2207 21.7143 12.5714 21.7143C11.2766 21.7143 10.0139 21.5014 8.83402 21.0927C7.5657 22.0733 5.82608 22.605 3.64552 22.7196C3.40291 22.7324 3.16059 22.6897 2.93693 22.5949C2.23389 22.2968 1.84345 21.5464 1.993 20.8057L2.02164 20.6934L2.0867 20.5015L2.23941 20.1372C2.82834 18.7159 3.19781 17.6129 3.34964 16.864L3.38306 16.6842L3.21094 16.3662C2.60569 15.1898 2.28573 13.9014 2.28573 12.5714C2.28573 7.48549 6.92222 3.42856 12.5714 3.42856ZM12.5714 5.71427C8.12174 5.71427 4.57144 8.82078 4.57144 12.5714C4.57144 13.7219 4.90248 14.8299 5.52958 15.8201C5.65981 16.0257 5.72098 16.2675 5.7042 16.5104C5.64637 17.3472 5.33217 18.4901 4.76257 19.9809L4.62659 20.3311L4.95063 20.2785C6.21931 20.0505 7.15865 19.6088 7.78681 18.9746C8.11563 18.6426 8.61345 18.5442 9.04384 18.7262C10.1311 19.1858 11.3298 19.4286 12.5714 19.4286C17.0211 19.4286 20.5714 16.322 20.5714 12.5714C20.5714 8.82078 17.0211 5.71427 12.5714 5.71427Z" fill="white"/>
</svg>

<svg width="32" height="32" fill="none" xmlns="http://www.w3.org/2000/svg"><path d="M27.093 11.042c1.673 1.66 2.622 3.813 2.622 6.1 0 1.452-.381 2.853-1.098 4.114.116.69.449 1.736 1.001 3.104l.296.713.065.192.028.112a1.6 1.6 0 01-1.652 1.914c-2.18-.115-3.92-.646-5.189-1.627-1.18.409-2.442.622-3.737.622-1.32 0-2.607-.221-3.808-.647a1.143 1.143 0 11.762-2.154A9.121 9.121 0 0019.43 24c1.241 0 2.44-.243 3.527-.702.43-.182.929-.084 1.257.248.629.634 1.568 1.076 2.837 1.304l.324.052c-.656-1.663-1.016-2.919-1.078-3.82a1.143 1.143 0 01.175-.69c.627-.99.958-2.099.958-3.25 0-1.66-.694-3.235-1.946-4.477a1.143 1.143 0 111.61-1.623zM12.571 3.43c5.65 0 10.286 4.056 10.286 9.142 0 5.086-4.636 9.143-10.286 9.143-1.294 0-2.557-.213-3.737-.621-1.268.98-3.008 1.512-5.188 1.627a1.6 1.6 0 01-1.653-1.914l.029-.113.065-.192.152-.364c.59-1.421.959-2.524 1.11-3.273l.034-.18-.172-.318a8.262 8.262 0 01-.925-3.795c0-5.086 4.636-9.142 10.285-9.142zm0 2.285c-4.45 0-8 3.107-8 6.857 0 1.15.331 2.259.959 3.25.13.205.191.446.174.69-.058.836-.372 1.98-.941 3.47l-.136.35.324-.052c1.268-.229 2.208-.67 2.836-1.304.329-.332.826-.43 1.257-.249a9.056 9.056 0 003.527.703c4.45 0 8-3.107 8-6.858 0-3.75-3.55-6.857-8-6.857z" fill="#fff"/></svg>
